static/innovation.svg

<?xml version="1.0" encoding="utf-8"?><!-- Uploaded to: SVG Repo, www.svgrepo.com, Generator: SVG Repo Mixer Tools -->
<svg width="800px" height="800px" viewBox="0 0 16 16" fill="none" xmlns="http://www.w3.org/2000/svg">
<path fill-rule="evenodd" clip-rule="evenodd" d="M10 16L12 14V10L13.6569 8.34314C15.1571 6.84285 16 4.80802 16 2.68629V0H13.3137C11.192 0 9.15714 0.842855 7.65685 2.34315L6 4H2L0 6L10 16ZM10.5 7C11.3284 7 12 6.32843 12 5.5C12 4.67157 11.3284 4 10.5 4C9.67157 4 9 4.67157 9 5.5C9 6.32843 9.67157 7 10.5 7Z" fill="#000000"/>
<path d="M4.9274 13.7558L2.24423 11.0726L0 15L1 16L4.9274 13.7558Z" fill="#000000"/>
</svg>

<svg xmlns="http://www.w3.org/2000/svg" width="800" height="800" fill="none" viewBox="0 0 16 16"><path fill="currentColor" fill-rule="evenodd" d="m10 16 2-2v-4l1.66-1.66A8 8 0 0 0 16 2.7V0h-2.69a8 8 0 0 0-5.65 2.34L6 4H2L0 6zm.5-9a1.5 1.5 0 1 0 0-3 1.5 1.5 0 0 0 0 3" clip-rule="evenodd"/><path fill="currentColor" d="m4.93 13.76-2.69-2.69L0 15l1 1z"/></svg>
